X: 353
T:Hard Times (Come again no more)
C: Stephen Foster
N: From J.C.'s Tunefinder
M:2/2
L:1/4
N:Reposted by Tris King, original transcriber unknown
K:G
 z2 G A| B2 B B| B d2 B| A G G3/4 A/4- B| B2 e- d| d2 B B| B3/4 A/4- G A
3/2
G/2|\
 G4| z2 G A| B2 B B| B d2 B| A G G3/4 A/4- B| B2 e- d| d2 B2| B3/4 A/4-
G
A3/2 G/2|\
 G4| z2 B c| d3 d| d2 ^c d| e4| d4| g2 d2| e- d d2| B/2 B3/2 AG/2-A/2|\
 A2 G/2 A3/2| B2 B B| B d2 B| A G G3/4 A/4- B| B2 e- d| d2 B2| B3/4 A/4-
 G
A3/2 G/2|\
 G4|

